dist/svgs/crypto-icons/icons/eos.svg

<?xml version="1.0" encoding="UTF-8" standalone="yes"?>
<svg xmlns="http://www.w3.org/2000/svg" xmlns:xlink="http://www.w3.org/1999/xlink" width="512px" height="512px" viewBox="0 0 384 384" version="1.1">
  <g id="surface1">
    <path style=" stroke:none;fill-rule:nonzero;fill:rgb(0%,0%,0%);fill-opacity:1;" d="M 333.851562 299.726562 L 287.171875 120.460938 C 286.859375 119.273438 286.320312 118.160156 285.578125 117.179688 L 199.472656 3.707031 C 197.703125 1.378906 194.949219 0.0117188 192.027344 0.00390625 C 189.105469 -0.00390625 186.34375 1.347656 184.5625 3.664062 L 97.417969 117.136719 C 96.648438 118.136719 96.089844 119.285156 95.78125 120.511719 L 50.132812 299.773438 C 49.089844 303.878906 50.953125 308.171875 54.664062 310.214844 L 187.453125 383.636719 C 190.28125 385.199219 193.714844 385.199219 196.546875 383.636719 L 329.335938 310.214844 C 333.0625 308.160156 334.921875 303.84375 333.851562 299.726562 Z M 300.621094 246.394531 L 265.035156 190.175781 L 276.90625 155.332031 Z M 201.363281 37.132812 L 267.648438 124.480469 L 252.179688 169.871094 L 201.363281 89.59375 Z M 192 109.773438 L 244.433594 192.601562 L 210.308594 292.742188 L 173.363281 292.742188 L 173.363281 292.738281 L 139.089844 193.355469 Z M 182.636719 36.867188 L 182.636719 89.59375 L 131.28125 170.71875 L 115.34375 124.492188 Z M 106.207031 155.425781 L 118.464844 190.96875 L 82.820312 247.28125 Z M 126.273438 213.605469 L 153.566406 292.738281 L 76.175781 292.738281 Z M 95.359375 311.386719 L 159.996094 311.386719 L 175.222656 355.542969 Z M 191.949219 346.625 L 179.792969 311.386719 L 203.953125 311.386719 Z M 208.664062 355.605469 L 223.730469 311.386719 L 288.640625 311.386719 Z M 230.085938 292.742188 L 257.289062 212.910156 L 307.820312 292.742188 Z M 230.085938 292.742188 "/>
  </g>
</svg>

<svg xmlns="http://www.w3.org/2000/svg" viewBox="0 0 384 384"><path d="M333.852 299.727l-46.68-179.266a9.389 9.389 0 00-1.594-3.281L199.473 3.707a9.382 9.382 0 00-7.446-3.703 9.385 9.385 0 00-7.464 3.66L97.418 117.137a9.228 9.228 0 00-1.637 3.375L50.133 299.773a9.305 9.305 0 004.531 10.442l132.79 73.422a9.407 9.407 0 009.093 0l132.789-73.422a9.303 9.303 0 004.516-10.488zm-33.23-53.332l-35.587-56.22 11.871-34.843zm-99.26-209.262l66.285 87.347-15.468 45.391-50.817-80.277zM192 109.773l52.434 82.829-34.125 100.14h-36.946v-.004l-34.273-99.383zm-9.363-72.906v52.727l-51.356 81.125-15.937-46.227zm-76.43 118.559l12.258 35.543L82.82 247.28zm20.066 58.18l27.293 79.132h-77.39zm-30.914 97.78h64.637l15.227 44.157zm96.59 35.239l-12.156-35.238h24.16zm16.715 8.98l15.066-44.218h64.91zm21.422-62.863l27.203-79.832 50.531 79.832zm0 0"/></svg>
